svg/import.svg

<svg xmlns="http://www.w3.org/2000/svg" viewBox="0 0 32 32" enable-background="new 0 0 32 32"><path d="M 6 4 L 6 28 L 26 28 L 26 19 L 24 19 L 24 26 L 8 26 L 8 6 L 24 6 L 24 13 L 26 13 L 26 4 L 6 4 z M 17.5 11 L 13.1875 15.28125 L 12.5 16 L 13.1875 16.71875 L 17.5 21 L 18.90625 19.59375 L 16.3125 17 L 28 17 L 28 15 L 16.3125 15 L 18.90625 12.40625 L 17.5 11 z"/></svg>

<svg xmlns="http://www.w3.org/2000/svg" viewBox="0 0 32 32"><path d="M6 4v24h20v-9h-2v7H8V6h16v7h2V4H6zm11.5 7l-4.313 4.28-.687.72.688.72L17.5 21l1.406-1.406L16.313 17H28v-2H16.312l2.594-2.594L17.5 11z"/></svg>
